!!!SOCIAL_FUNCTION:	bird dance songs
!!!PDT:	1932
!!!OTL: No_102_Song_in_the_Early_Evening_(c).krn
!!!REG: Southwest
!!!LANG: Non-Tone
!!!LING_GROUP: Yuman-Cochimi
**kern	**kern
*staff2	*staff1
=1-	=1-
*clefF4	*clefF4
*k[f#c#g#d#a#]	*k[f#c#g#d#a#]
*M2/4	*M2/4
8GG#/L	4c#\
8GG#/J	.
8GG#/	12B\L
.	12B\
16r	.
.	12c#\J
16GG#/	.
=2||	=2||
*M3/4	*M3/4
2.r	8.B\L
.	16G#\Jk
.	8G#\L
.	8G#\J
.	8G#\
.	8r
=3||	=3||
*M2/4	*M2/4
2r	8c#\L
.	[8B\J
.	4B\]
=4	=4
2r	8B\L
.	8B\J
.	4G#\
=5||	=5||
*M3/4	*M3/4
2.r	8F#\L
.	8D#\J
.	8D#\L
.	8F#\J
.	8r
.	8B\
=6||	=6||
*M2/4	*M2/4
2r	8G#\L
.	8G#\J
.	8G#\L
.	8G#\J
=7	=7
2r	4F#\
.	8r
.	8D#\
=8	=8
2r	8D#\L
.	8F#\J
.	8F#\L
.	8F#\J
=9||	=9||
*M3/4	*M3/4
2.r	4F#\
.	4r
.	8r
.	8G#\
=10||	=10||
*M2/4	*M2/4
2r	8G#\L
.	8c#\J
.	4B\
=11	=11
2r	8B\L
.	8B\J
.	4G#\
=12||	=12||
*M3/4	*M3/4
2.r	8F#\L
.	8D#\J
.	8D#\L
.	8F#\J
.	8r
.	8B\
=13||	=13||
*M2/4	*M2/4
2r	8G#\L
.	8G#\J
.	8G#\L
.	8G#\J
=14	=14
2r	8F#\
.	8r
.	8r
.	8D#\
=15	=15
2r	8D#\L
.	8F#\J
.	8F#\L
.	8F#\J
=16||	=16||
*M3/4	*M3/4
2.r	4F#\
.	4r
.	8r
.	8G#\
=17||	=17||
*M2/4	*M2/4
2r	8G#\L
.	8c#\J
.	4B\
=18	=18
2r	8B\L
.	8B\J
.	4G#\
=19||	=19||
*M3/4	*M3/4
2.r	8F#\L
.	8D#\J
.	8D#\L
.	8F#\J
.	8r
.	8B\
=20||	=20||
*M2/4	*M2/4
2r	8G#\L
.	8G#\J
.	8G#\L
.	8G#\J
=21	=21
2r	8F#\
.	4r
.	8D#\
=22	=22
2r	8D#\L
.	8F#\J
.	8F#\L
.	8F#\J
=23	=23
2r	4F#\
.	4r
=24	=24
2r	2r
=25	=25
*M3/4	*M3/4
2.r	8F#\L
.	8F#\J
.	8F#\L
.	8F#\J
.	8r
.	8c#\
=26||	=26||
*M2/4	*M2/4
2r	4c#\
.	8c#\L
.	8c#\J
=27	=27
2r	4B\
.	8G#\L
.	8G#\J
=28	=28
2r	8G#\L
.	8G#\J
.	8r
.	8c#\
=29||	=29||
*M3/4	*M3/4
2.r	4B\
.	8B\L
.	8B\J
.	4G#\
=30	=30
2.r	8F#\L
.	8D#\J
.	8D#\L
.	8F#\J
.	8r
.	8B\
=31||	=31||
*M2/4	*M2/4
2r	8G#\L
.	8G#\J
.	8G#\L
.	8G#\J
=32	=32
2r	4F#\
.	8r
.	8D#\
=33	=33
2r	8D#\L
.	8F#\J
.	8F#\L
.	8F#\J
=34	=34
2r	4F#\
.	4r
==	==
*-	*-
